_inc/images/systems/logos/auto-various.svg

<svg viewBox="0 0 200 40" xmlns="http://www.w3.org/2000/svg">
    <path d="M46.716 16.773a3.343 3.343 0 0 1-3.323-3.341 3.346 3.346 0 0 1 3.33-3.334c1.838-.007 3.372 1.534 3.355 3.362a3.365 3.365 0 0 1-3.362 3.313Zm-9.341-4.487V9.955c1.31 1.02 2.544 1.985 3.816 2.974-1.272 1.094-2.502 2.156-3.809 3.278v-2.331c-1.485.056-2.922.136-4.253.744-.993.455-1.374 1.37-1.482 2.377-.105.982-.108 1.974-.157 3.005h-1.51c-.014-1.307-.108-2.645.241-3.956.332-1.24.979-2.271 2.181-2.816a9.433 9.433 0 0 1 2.069-.647c.79-.157 1.607-.189 2.411-.273.154-.014.304-.014.493-.024Zm3.578 15.342v2.327c-1.303-1.017-2.54-1.978-3.809-2.967 1.265-1.087 2.495-2.149 3.788-3.261v2.359c.919-.104 1.786-.185 2.649-.304.371-.052.731-.174 1.094-.276 1.066-.293 1.699-1.024 1.898-2.072.147-.776.171-1.576.23-2.369.028-.374.004-.752.004-1.161h1.562c.014 1.709.136 3.429-.667 5.029-.64 1.272-1.737 1.954-3.079 2.226-1.049.213-2.125.301-3.187.441-.151.021-.301.017-.483.028Zm-8.446.223c-.975-.01-1.783-.832-1.769-1.8a1.796 1.796 0 0 1 1.807-1.761c.979.011 1.786.832 1.768 1.8a1.797 1.797 0 0 1-1.806 1.761Z" style="fill:#ccc"/>
    <path d="M66.815 10.846h6.03l-7.71 18.75h-8.34l-1.11-18.75h6.33v11.91h.27Zm8.429 18.75h-6l7.89-18.75h8.82l1.32 18.75h-6.03l-.12-2.97h-4.71Zm5.13-12.99-2.1 5.25h2.4v-5.25Zm24.42 12.99h-6.27l-1.38-5.58h-1.23l-.96 5.58h-5.7l3.3-18.75h9c3.42 0 5.13 1.53 5.13 4.59 0 1.26-.19 2.46-.57 3.6-.7 2.16-1.8 3.6-3.3 4.32Zm-7.41-13.95-.66 3.75h1.32c.68 0 1.195-.075 1.545-.225.35-.15.59-.58.72-1.29.13-.71.195-1.145.195-1.305 0-.4-.155-.655-.465-.765-.31-.11-.815-.165-1.515-.165Zm9.599 13.95 3.3-18.75h5.7l-3.3 18.75Zm16.71-12.48-1.38 7.8h2.37c.78 0 1.36-.095 1.74-.285.38-.19.63-.625.75-1.305l1.38-7.8h-2.4c-.76 0-1.33.095-1.71.285-.38.19-.63.625-.75 1.305Zm3.45-6.72c2.54 0 4.35.495 5.43 1.485 1.08.99 1.62 2.515 1.62 4.575s-.325 4.215-.975 6.465c-.65 2.25-1.68 4-3.09 5.25s-3.47 1.875-6.18 1.875c-2.71 0-4.605-.495-5.685-1.485-1.08-.99-1.62-2.515-1.62-4.575 0-.98.14-2.275.42-3.885.28-1.61.65-3 1.11-4.17.46-1.17 1.08-2.185 1.86-3.045 1.5-1.66 3.87-2.49 7.11-2.49Zm16.559.45-2.49 14.07h2.04c.7 0 1.2-.095 1.5-.285.3-.19.51-.625.63-1.305l2.22-12.48h5.7l-1.86 10.53c-.3 1.7-.645 3.07-1.035 4.11-.39 1.04-.935 1.92-1.635 2.64-.7.72-1.565 1.22-2.595 1.5-1.03.28-2.335.42-3.915.42-2.42 0-4.115-.365-5.085-1.095-.97-.73-1.455-1.985-1.455-3.765 0-.98.14-2.25.42-3.81l1.86-10.53Zm9.09 18.42 1.68-4.95c1.68.46 3.22.69 4.62.69s2.53-.06 3.39-.18l.24-1.5-2.49-.24c-1.9-.18-3.245-.61-4.035-1.29s-1.185-1.64-1.185-2.88c0-.54.06-1.14.18-1.8.46-2.56 1.295-4.32 2.505-5.28s3.085-1.44 5.625-1.44 4.78.25 6.72.75l-1.56 4.8c-1.74-.3-3.14-.45-4.2-.45s-1.96.05-2.7.15l-.24 1.47 2.01.21c2.04.22 3.49.705 4.35 1.455.86.75 1.29 1.755 1.29 3.015 0 1.28-.28 2.6-.84 3.96-.28.7-.585 1.285-.915 1.755-.33.47-.75.87-1.26 1.2-.51.33-.975.58-1.395.75-.42.17-.95.295-1.59.375-.94.14-2.09.21-3.45.21-2.48 0-4.73-.26-6.75-.78Z" style="white-space:pre;fill:#fff"/>
</svg>

<?xml version="1.0" encoding="utf-8"?>
<svg version="1.1" id="various" x="0px" y="0px" viewBox="0 0 200 40" xmlns="http://www.w3.org/2000/svg">
  <path d="M 46.716 16.773 C 44.881 16.766 43.393 15.267 43.393 13.432 C 43.393 11.601 44.888 10.105 46.723 10.098 C 48.561 10.091 50.095 11.632 50.078 13.46 C 50.06 15.288 48.544 16.78 46.716 16.773 Z" style="fill: rgb(204, 204, 204);"/>
  <path d="M 37.375 12.286 C 37.375 11.521 37.375 10.787 37.375 9.955 C 38.685 10.975 39.919 11.94 41.191 12.929 C 39.919 14.023 38.689 15.085 37.382 16.207 C 37.382 15.382 37.382 14.652 37.382 13.876 C 35.897 13.932 34.46 14.012 33.129 14.62 C 32.136 15.075 31.755 15.99 31.647 16.997 C 31.542 17.979 31.539 18.971 31.49 20.002 C 31.025 20.002 30.529 20.002 29.98 20.002 C 29.966 18.695 29.872 17.357 30.221 16.046 C 30.553 14.806 31.2 13.775 32.402 13.23 C 33.055 12.932 33.765 12.723 34.471 12.583 C 35.261 12.426 36.078 12.394 36.882 12.31 C 37.036 12.296 37.186 12.296 37.375 12.286 Z" style="fill: rgb(204, 204, 204);"/>
  <path d="M 40.953 27.628 C 40.953 28.396 40.953 29.13 40.953 29.955 C 39.65 28.938 38.413 27.977 37.144 26.988 C 38.409 25.901 39.639 24.839 40.932 23.727 C 40.932 24.524 40.932 25.251 40.932 26.086 C 41.851 25.982 42.718 25.901 43.581 25.782 C 43.952 25.73 44.312 25.608 44.675 25.506 C 45.741 25.213 46.374 24.482 46.573 23.434 C 46.72 22.658 46.744 21.858 46.803 21.065 C 46.831 20.691 46.807 20.313 46.807 19.904 C 47.324 19.904 47.82 19.904 48.369 19.904 C 48.383 21.613 48.505 23.333 47.702 24.933 C 47.062 26.205 45.965 26.887 44.623 27.159 C 43.574 27.372 42.498 27.46 41.436 27.6 C 41.285 27.621 41.135 27.617 40.953 27.628 Z" style="fill: rgb(204, 204, 204);"/>
  <path d="M 32.507 27.851 C 31.532 27.841 30.724 27.019 30.738 26.051 C 30.752 25.073 31.567 24.28 32.545 24.29 C 33.524 24.301 34.331 25.122 34.313 26.09 C 34.299 27.068 33.485 27.858 32.507 27.851 Z" style="fill: rgb(204, 204, 204);"/>
  <path d="M 66.815 10.846 L 72.845 10.846 L 65.135 29.596 L 56.795 29.596 L 55.685 10.846 L 62.015 10.846 L 62.015 22.756 L 62.285 22.756 Z M 75.244 29.596 L 69.244 29.596 L 77.134 10.846 L 85.954 10.846 L 87.274 29.596 L 81.244 29.596 L 81.124 26.626 L 76.414 26.626 Z M 80.374 16.606 L 78.274 21.856 L 80.674 21.856 L 80.674 16.606 Z M 104.794 29.596 L 98.524 29.596 L 97.144 24.016 L 95.914 24.016 L 94.954 29.596 L 89.254 29.596 L 92.554 10.846 L 101.554 10.846 C 104.974 10.846 106.684 12.376 106.684 15.436 C 106.684 16.696 106.494 17.896 106.114 19.036 C 105.414 21.196 104.314 22.636 102.814 23.356 Z M 97.384 15.646 L 96.724 19.396 L 98.044 19.396 C 98.724 19.396 99.239 19.321 99.589 19.171 C 99.939 19.021 100.179 18.591 100.309 17.881 C 100.439 17.171 100.504 16.736 100.504 16.576 C 100.504 16.176 100.349 15.921 100.039 15.811 C 99.729 15.701 99.224 15.646 98.524 15.646 Z M 106.983 29.596 L 110.283 10.846 L 115.983 10.846 L 112.683 29.596 Z M 123.693 17.116 L 122.313 24.916 L 124.683 24.916 C 125.463 24.916 126.043 24.821 126.423 24.631 C 126.803 24.441 127.053 24.006 127.173 23.326 L 128.553 15.526 L 126.153 15.526 C 125.393 15.526 124.823 15.621 124.443 15.811 C 124.063 16.001 123.813 16.436 123.693 17.116 Z M 127.143 10.396 C 129.683 10.396 131.493 10.891 132.573 11.881 C 133.653 12.871 134.193 14.396 134.193 16.456 C 134.193 18.516 133.868 20.671 133.218 22.921 C 132.568 25.171 131.538 26.921 130.128 28.171 C 128.718 29.421 126.658 30.046 123.948 30.046 C 121.238 30.046 119.343 29.551 118.263 28.561 C 117.183 27.571 116.643 26.046 116.643 23.986 C 116.643 23.006 116.783 21.711 117.063 20.101 C 117.343 18.491 117.713 17.101 118.173 15.931 C 118.633 14.761 119.253 13.746 120.033 12.886 C 121.533 11.226 123.903 10.396 127.143 10.396 Z M 143.702 10.846 L 141.212 24.916 L 143.252 24.916 C 143.952 24.916 144.452 24.821 144.752 24.631 C 145.052 24.441 145.262 24.006 145.382 23.326 L 147.602 10.846 L 153.302 10.846 L 151.442 21.376 C 151.142 23.076 150.797 24.446 150.407 25.486 C 150.017 26.526 149.472 27.406 148.772 28.126 C 148.072 28.846 147.207 29.346 146.177 29.626 C 145.147 29.906 143.842 30.046 142.262 30.046 C 139.842 30.046 138.147 29.681 137.177 28.951 C 136.207 28.221 135.722 26.966 135.722 25.186 C 135.722 24.206 135.862 22.936 136.142 21.376 L 138.002 10.846 Z M 152.792 29.266 L 154.472 24.316 C 156.152 24.776 157.692 25.006 159.092 25.006 C 160.492 25.006 161.622 24.946 162.482 24.826 L 162.722 23.326 L 160.232 23.086 C 158.332 22.906 156.987 22.476 156.197 21.796 C 155.407 21.116 155.012 20.156 155.012 18.916 C 155.012 18.376 155.072 17.776 155.192 17.116 C 155.652 14.556 156.487 12.796 157.697 11.836 C 158.907 10.876 160.782 10.396 163.322 10.396 C 165.862 10.396 168.102 10.646 170.042 11.146 L 168.482 15.946 C 166.742 15.646 165.342 15.496 164.282 15.496 C 163.222 15.496 162.322 15.546 161.582 15.646 L 161.342 17.116 L 163.352 17.326 C 165.392 17.546 166.842 18.031 167.702 18.781 C 168.562 19.531 168.992 20.536 168.992 21.796 C 168.992 23.076 168.712 24.396 168.152 25.756 C 167.872 26.456 167.567 27.041 167.237 27.511 C 166.907 27.981 166.487 28.381 165.977 28.711 C 165.467 29.041 165.002 29.291 164.582 29.461 C 164.162 29.631 163.632 29.756 162.992 29.836 C 162.052 29.976 160.902 30.046 159.542 30.046 C 157.062 30.046 154.812 29.786 152.792 29.266 Z" style="white-space: pre; fill: rgb(255, 255, 255);"/>
</svg>
